packages/core/src/svgs/tokens/mono/AGIX.svg

<svg width="24" height="24" viewBox="0 0 24 24" fill="none" xmlns="http://www.w3.org/2000/svg">
<path d="M10.9552 2.63165C10.1162 3.33176 8.66594 4.91533 8.66594 6.69894C8.66594 8.91595 11.322 10.4217 12.7054 11.2274L13.15 11.4941C14.3057 12.2053 17.0006 13.9833 17.0006 16.8282C17.0006 19.5287 14.6669 21.3123 13.4333 21.9679C13.3222 22.0235 13.1833 22.0068 13.0888 21.9179C13.0608 21.8912 13.0388 21.8588 13.0241 21.823C13.0093 21.7871 13.0023 21.7486 13.0034 21.7099C13.0044 21.6712 13.0136 21.633 13.0302 21.598C13.0468 21.5632 13.0705 21.532 13.1 21.5068C13.989 20.7289 15.3336 19.0508 15.3336 17.3672C15.3336 15.0502 13.3445 13.8112 11.8053 12.9222L11.622 12.8109C9.70497 11.7053 6.99902 10.1439 6.99902 7.049C6.99902 4.67642 9.25492 2.78168 10.5551 2.04823C10.7218 1.95378 10.9274 2.00379 11.033 2.14825C11.1441 2.30383 11.1052 2.50942 10.9552 2.63165Z" fill="white"/>
<path d="M15.333 6.60999C15.333 4.79859 13.8995 3.24836 13.0771 2.57604C12.955 2.47601 12.9216 2.29821 13.0216 2.17598C13.0665 2.11886 13.13 2.07926 13.2011 2.06404C13.2721 2.04881 13.3462 2.05893 13.4106 2.09263C14.6885 2.79274 16.8722 4.58189 16.8722 6.98781C16.8722 8.40469 16.2611 9.55485 15.4387 10.4717C15.172 10.6273 14.8663 10.6772 14.5497 10.4995C13.944 10.1606 14.2385 9.46591 14.533 8.927C15.0435 8.25956 15.3242 7.44472 15.333 6.60442V6.60999ZM9.44333 15.1335H9.47665C8.98328 15.7665 8.69968 16.5376 8.6654 17.3394C8.6654 19.0286 10.0712 20.74 10.9269 21.5178C11.0436 21.629 11.0546 21.8067 10.9379 21.9122C10.8885 21.9563 10.8267 21.9837 10.7608 21.9907C10.6951 21.9976 10.6288 21.9838 10.5713 21.9511L10.5545 21.9457C9.66554 21.4455 7.13184 20.0287 7.13184 16.9838C7.13184 15.7335 7.66525 14.6834 8.36536 13.8333C8.69874 13.5444 9.08769 13.3554 9.44333 13.5554C10.1101 13.9388 9.71559 14.7446 9.44333 15.128V15.1335Z" fill="white"/>
</svg>

<svg xmlns="http://www.w3.org/2000/svg" width="24" height="24" fill="none" viewBox="0 0 24 24">
    <path fill="#fff" d="M10.955 2.632c-.839.7-2.29 2.283-2.29 4.067 0 2.217 2.657 3.723 4.04 4.528l.445.267c1.156.711 3.85 2.49 3.85 5.334 0 2.7-2.333 4.484-3.567 5.14a.305.305 0 0 1-.344-.05.28.28 0 0 1-.059-.32.3.3 0 0 1 .07-.091c.889-.778 2.234-2.456 2.234-4.14 0-2.317-1.99-3.556-3.529-4.445l-.183-.111c-1.917-1.106-4.623-2.667-4.623-5.762 0-2.373 2.256-4.267 3.556-5a.37.37 0 0 1 .478.1c.111.155.072.36-.078.483"/>
    <path fill="#fff" d="M15.333 6.61c0-1.811-1.434-3.362-2.256-4.034-.122-.1-.155-.278-.055-.4a.31.31 0 0 1 .389-.083c1.277.7 3.461 2.489 3.461 4.895 0 1.417-.61 2.567-1.433 3.484-.267.155-.573.205-.89.027-.605-.338-.31-1.033-.016-1.572a3.9 3.9 0 0 0 .8-2.323zm-5.89 8.523h.034a3.86 3.86 0 0 0-.812 2.206c0 1.69 1.406 3.401 2.262 4.179.117.111.128.289.01.394a.32.32 0 0 1-.366.04l-.016-.006c-.89-.5-3.423-1.917-3.423-4.962 0-1.25.533-2.3 1.233-3.15.334-.29.723-.479 1.078-.279.667.384.273 1.19 0 1.573z"/>
</svg>
